X: 40280
T: Tobogganist, The
R: reel
M: 4/4
K: Fmajor
|:"F"fg ag fd cA|"F/A" G2 .A2 A3 B-|"Bb" B2 F2 d2 cB|"C" A2 .G2 G3 F-|
"Dm" FE DA G3 A-|"Am" AG FG Ac- cd-|"Bb"dc Bc de fc|"C7"A2 .G2 G3 f-|
"F"fg ag fd cA|"F/A"G2 .A2 A3 {FGA}B-|"Bb"B2 F2 d2 cB|"C7"A2 .G2 G3 D-|
"Bb"DB, DF "C"E3 E-|"Am"E2 CE "Dm7"Ac- cd-|"Bb"de fd cA GA|"C7"G2 .F2 "F"F2 fg|
"F"f2 "C"e2 "F"f3 g|"F"f2 "C/E"c2 "Dm"F2 fg|"Bb"ag fd cd fg|"C"af ab g3 f|
"F"a2 "Bb"f2 "F"c2 fg|"F"ag ac' a3 f|"Bb"ab c'a ga c'g|"C"af fa g2 fg|
"F"a2 "Bb"f2 "F"c3 g|"F"fc "C/E"AG "Dm"F3 A,|"Bb"B,A, B,C DE FG|"C"AB cd ef ga|
"F"f2 "C"c2 "Dm"d2 ef|"Am"cA GF "Gm"G2 FA|"Bb"B2 ag fd cA|"C7"GF G2 "F"F3 f-:|

